X:1
T:Haunting, The
C:Joe Buchanan's Scottish Tome - Page 049.0
I:049 0
R:Air
Z:Carl Allison
L:1/8
M:3/4
K:C
| B4df | e4 dc | B2> c2 de | c4A2 | B4 df |e4 dc | d2> c2 d2 |e4 de |
| f4 dB | e4 cA | d2> e2 dB | c4 A2 | B4 fd | e4 cA | (B2 B2) A2 | B4 de |
| f4 gf |e4 fe | d2> e2 dB | c4 A2 | B4 cd | e4 de | f2> g2 fd | e4 de |
| f4 dB | e4 cA | d2> e2 dB | c4A2 | B4 fd | e4 cA | (B2 B2) A2 | (B4 B2) |]
%%vskip 25
"^2nd. Fiddle"
| B4 df |e4  dc | B2> c2 de | c4 A2 | B4 df |e4 dc | d2> c2 d2 |e4 fg |
| d4 BG |c4  ec | B2> c2 BG | A4 e2 |d4 af |g4 ec | (d2 d2) c2 | d2> f2 Bc |
| f4 gf |e4 fe | d2> e2 dB | c4 A2 | B4 cd | e4 de | f2> g2 fd | e4 fg |
| a4 fd |g4 ec | B2> c2 BG | A4 c2 | d4 af | f4 ec | (d2 d2) c2 | (d4 d2) |]
